X:194
T:Lady Caernarfon's Pig
M:4/4
L:1/4
Q:100
C:Ollie Price
R:Processional
K:G
c A A/B/ c/d/ | B G G D | E A A B | c2 B2 | c A A/B/ c/d/|
B G E D | E A A G | A4 :||: A/d/ c/B/ c A |
B G E D | E A A B | c2 B2 | A/d/ c/B/ c A | B G E D|
| E A A G | A4 :||
